X: 4075
T: JENNY LATIN
R: Reel.
%R: reel
B: James Kerr "Merry Melodies" v.4 p.10 #75
Z: 2016 John Chambers <jc:trillian.mit.edu>
M: C|
L: 1/8
K: D
uA |\
DFAF BGAF | DFAF d2(df) |\
(D/E/F/G/) AF BGAF | E=ccE G2-G ::\
g |\
fddf Afdg |
fddf a2(ab) |\
[1 fddf Afde | =cdef g3 :|\
[2 afge fdAF | E=ccE G2-G |]

%%sep 1 1 500
%%sep 1 1 500

